X: 1
T: White Cockade    [A]
R: march
Z: 2011 John Chambers <jc:trillian.mit.edu>
S: printed MS of unknown origin
M: C|
L: 1/8
K: A
AB \
| "A"c2{B}ce dcBA | "A"c2c2 c2AB | "A"c2{B}ce dcBA | "E7"c2B2 B2AB |
| "A"c2e2 dcBA | "A"c2e2 a2ab | "A"c'bag "D"fgaf | "A"e2c2 c2 :|
|: cd \
| "A"e2c2 a2cd | "A"e2e2 e2cd | "A"e2c2 a2ga | "E7"b2B2 B2AB |
| "A"c2e2 "E"dcBA | "F#m"c2e2 "A"a2ab | "A"c'bag "D"fgaf | "A"e2c2 c2 :|
